!!!!SEGMENT: pl-wtm--r-1348_stefani-jozef--ave-maris-stella.krn
!!!cenid: 18xx:2900
!!!COM: Stefani, Józef
!!!COM-rismid: pe30024097
!!!CDT: 1800/04/16-1876/03/19
!!!CNT: Polish
!!!OTL: Ave maris stella
!!!PDT:
!!!AGN: Sacred
!!!SMS-siglum: PL-Wtm
!!!SMS-shelfmark: R 1348
!!!SMS-shelfwork: W
!!!SMS-variant:
!!!SMS-altvar:
!!!NIFC-rismid: 1001119071
!!!URL-scan: http://repozytorium.nifc.pl/skany/pl-wtm-nut--r1348
!!!ONB-nifc:
!!!OMD: Andante
!!!key:
**kern	**kern	**dynam
*part1	*part1	*part1
*staff2	*staff1	*
*Iforte	*Iforte	*
*I"fortepian	*I"fortepian	*
*clefF4	*clefG2	*
*k[b-e-a-d-]	*k[b-e-a-d-]	*
*A-:	*A-:	*
*M4/2	*M4/2	*
*all\right	*all\right	*
*2\right	*2\right	*
=1	=1	=1
!LO:TUP:problem=w grupie brak belek	!	!
12AA-\L	12A-/L	.
12C\	12c/	.
12E-\J	12e-/J	.
!LO:TUP:problem=w grupie brak belek	!	!
12A-\L	12a-/L	.
12c\	12cc/	.
12e->\J	12ee-/J	.
2a->\	2aa-/	.
1ryy	1r;	.
=2	=2	=2
!LO:TUP:problem=w triolach w tym takcie brak belek	!	!
12E-\L	12e-/L	.
12G\	12g/	.
12B-\J	12b-/J	.
12e->\L	12ee-/L	.
12g>\	12gg/	.
12b->\J	12bb-/J	.
2ee->\	2eee-/	.
1ryy	1r;	.
=3!|:	=3!|:	=3!|:
!	!	!LO:DY:a
4A-: 4E-: 4C: 4AA-:\	4cc: 4a-: 4e-: 4c:/	p
4r	4r	.
*rep	*	*
4A-: 4E-: 4C: 4AA-:\	4cc 4a- 4e- 4c/	.
4r	4r	.
*Xrep	*	*
*rep	*	*
4A-: 4E-: 4C: 4AA-:\	4cc 4a- 4e- 4c/	.
4r	4r	.
*Xrep	*	*
*rep	*	*
4A-: 4E-: 4C: 4AA-:\	4cc 4a- 4e- 4c/	.
4r	4r	.
*Xrep	*	*
=4	=4	=4
!!LO:LB:g=original
2E- 2BB- 2GG 2EE-/	2b-: 2g: 2e-: 2B-:/	.
2r	2r	.
2A- 2E- 2C 2AA-\	2cc: 2a-: 2e-: 2c:/	.
2r	2r	.
=5	=5	=5
4B- 4BB-\	4ee-:/ 4b-:/ 4f:/	.
4r	4r	.
4B- 4BB-\	4dd- 4g 4e-/	.
4r	4r	.
4A- 4AA-\	4cc 4a- 4e-/	.
4r	4r	.
4B- 4G 4E-\	4b- 4g 4e-/	.
4r	4r	.
=6	=6	=6
2A- 2E- 2C 2AA-\	2cc 2a- 2e-/	.
2r	2r	.
2A- 2E- 2C 2AA-\	2cc 2a- 2e-/	.
2r	2r	.
=7	=7	=7
!!LO:LB:g=original
4B- 4G 4E-\	4b- 4g 4e-/	.
4r	4r	.
!	!	!LO:HP:a
4B- 4G 4E-\	4b- 4g 4e-/	<
4r	4r	.
4A- 4E- 4C 4AA-\	4cc 4a- 4e-/	.
4r	4r	.
4F 4Dn 4BB- 4FF/	4ddn 4b- 4a- 4f/	.
4r	4r	[
=8	=8	=8
2E- 2BB- 2GG 2EE-/	2ee- 2b- 2g 2e-/	.
2r	2r	.
2A- 2E- 2C 2AA-/	2cc 2a- 2e- 2c/	.
2r	2r	.
=9	=9	=9
!	!	!LO:DY:a
4B- 4G 4E- 4BB-\	4b- 4g 4e-/	f
4r	4r	.
4B- 4G 4E- 4BB-\	4ee- 4b- 4g 4e-/	.
4r	4r	.
4B- 4A- 4F 4BB-\	4ee-/ 4b-/ 4f/	.
4r	4r	.
4B- 4A- 4F 4BB-\	4ddn 4b- 4f/	.
4r	4r	.
=10	=10	=10
2B- 2G 2E-\	2ee- 2b- 2g 2e-/	.
2r	2r	.
2B- 2G 2E-\	2ee- 2b- 2g 2e-/	.
2r	2r	.
=11:|!	=11:|!	=11:|!
!!LO:LB:g=original
!	!	!LO:DY:a
4d- 4A- 4F 4D-\	4ff 4dd- 4a- 4f\	p
4r	4r	.
4d- 4A- 4F 4D-\	4ff 4dd- 4a- 4f\	.
4r	4r	.
4d- 4A- 4F 4D-\	4dd- 4a- 4f/	.
4r	4r	.
4B- 4F 4D-\	4b- 4f 4d-/	.
4r	4r	.
=12	=12	=12
2E- 2EE-/	2g: 2e-: 2B-: 2G<:/	.
2r	2r	.
2E- 2EE-/	2b- 2g 2e- 2B-/	.
2D- 2DD-/	2r	.
=13	=13	=13
!	!	!LO:DY:a
4C 4CC/	4a- 4e- 4A-/	f
4r	4r	.
4C 4CC/	4ee- 4a- 4e-/	.
4r	4r	.
4BB- 4BBB-/	4dd- 4g 4e-/	.
4r	4r	.
4AA- 4AAA-/	4cc 4a- 4e-/	.
4r	4r	.
=14	=14	=14
2A- 2E- 2C 2AA-\	2cc 2a- 2e- 2c/	.
2r;	2r;	.
!LO:TUP:problem=w grupie brak belek i oznaczeń	!LO:TUP:problem=w grupie brak belek i oznaczeń	!
12E-\L	12e-/L	.
12G\	12g/	.
12B-\J	12b-/J	.
!LO:TUP:problem=w grupie brak belek i oznaczeń	!LO:TUP:problem=w grupie brak belek i oznaczeń	!
12e->\L	12ee-/L	.
12g>\	12gg/	.
12b->\J	12bb-/J	.
2ee->;<\	2eee-;/	.
=15	=15	=15
!!LO:LB:g=original
!	!	!LO:DY:a
4A-: 4E-: 4C: 4AA-:\	4cc: 4a-: 4e-: 4c:/	p
4r	4r	.
*rep	*rep	*
4A-: 4E-: 4C: 4AA-:\	4cc: 4a-: 4e-: 4c:/	.
4r	4r	.
*Xrep	*Xrep	*
*rep	*rep	*
4A-: 4E-: 4C: 4AA-:\	4cc: 4a-: 4e-: 4c:/	.
4r	4r	.
*Xrep	*Xrep	*
*rep	*rep	*
4A-: 4E-: 4C: 4AA-:\	4cc: 4a-: 4e-: 4c:/	.
4r	4r	.
*Xrep	*Xrep	*
=16	=16	=16
2E- 2BB- 2GG 2EE-/	2b- 2g 2e- 2B-/	.
2r	2r	.
2A- 2E- 2C 2AA-\	2cc 2a- 2e- 2c/	.
2r	2r	.
=17	=17	=17
4B- 4BB-\	4ee- 4b- 4f/	.
4r	4r	.
4B- 4BB-\	4dd- 4g 4e-/	.
4r	4r	.
4A- 4AA-\	4cc 4a- 4e-/	.
4r	4r	.
4B- 4G 4E-\	4b- 4g 4e-/	.
4r	4r	.
=18	=18	=18
2A- 2E- 2C 2AA-\	2cc 2a- 2e- 2c/	.
2r	2r	.
2c 2A- 2E- 2C\	2ee- 2a- 2e-/	.
2r	2r	.
=19	=19	=19
4B- 4BB-\	4ee- 4b- 4f/	.
4r	4r	.
4B- 4BB-\	4dd- 4g 4e-/	.
!LO:TX:t=P:problem=łamanie linii w takcie	!LO:TX:t=P:problem=łamanie linii w takcie	!
4r	4r	.
!!LO:LB:g=original
4c 4A- 4E-\	4cc 4a- 4e-/	.
4r	4r	.
4B- 4G 4E-\	4b- 4g 4e-/	.
4r	4r	.
=20	=20	=20
2B- 2G 2E-\	2b- 2g 2e-/	.
2r	2r	.
8AA-\L	8a-/L	.
8C\	8cc/	.
8E-\	8ee-/	.
8A-\J	8aa-/J	.
8c\L	8ccc\L	.
8A-\	8aa-\	.
8E-\	8ee-\	.
8C\J	8cc\J	.
=21	=21	=21
4AA-/	4a-/	.
4r	4r	.
4A- 4E- 4C 4AA-\	4aa- 4ee- 4cc 4a-\	.
4r	4r	.
1r;	1r;	.
==	==	==
*-	*-	*-
!!!system-decoration: {(s1,s2)}
!!!RDF**kern: > = above
!!!RDF**kern: < = below
!!!AIN: 1 forte
!!!ENC: Kamil Watkowski
!!!END: 2021-08-10
